build/img/svg/star-half.svg

<svg id="Слой_1" xmlns="http://www.w3.org/2000/svg" viewBox="0 0 16 16"><style>.st0{fill:#c9c9c9}.st1{fill:url(#SVGID_1_)}</style><path class="st0" d="M15.1 6.1c-.2-.2-.7-.3-1.5-.5l-2.2-.5c-.3-.1-.4-.1-.5-.2-.1 0-.2-.1-.3-.2-.1-.1-.2-.2-.3-.4l-1.1-2c-.5-.8-.7-1.2-1-1.3h-.4v12.9H8c.1 0 .2.1.5.2l2.1.9c.8.4 1.2.5 1.5.5.3-.1.5-.2.7-.5.2-.3.1-.7 0-1.6l-.2-2.3v-.5c0-.1.1-.2.1-.3.1-.1.1-.2.3-.4l1.5-1.7c.6-.7.9-1 .9-1.3 0-.3-.1-.6-.3-.8z"/><linearGradient id="SVGID_1_" gradientUnits="userSpaceOnUse" x1="3.989" y1="15.12" x2="3.989" y2="-.957"><stop offset="0" stop-color="#ff9a32"/><stop offset="1" stop-color="#ffaf35"/></linearGradient><path class="st1" d="M7.8 1c-.2 0-.3 0-.4.1-.3.1-.5.5-1 1.3l-1.1 2c-.2.1-.3.2-.3.3-.1.1-.2.2-.3.2-.1.1-.2.1-.5.2L2 5.6c-.9.1-1.3.2-1.5.5-.2.2-.3.5-.3.8 0 .3.3.7.9 1.3l1.5 1.7c.2.2.3.3.3.4.1.1.1.2.2.3v.5l-.2 2.3c-.1.9-.1 1.3 0 1.6.1.2.4.4.7.5.3.1.7-.1 1.5-.5l2.1-.9c.2-.1.4-.2.5-.2h.2V1z"/></svg>

<?xml version="1.0" encoding="utf-8"?>
<!-- Generator: Adobe Illustrator 23.1.0, SVG Export Plug-In . SVG Version: 6.00 Build 0)  -->
<svg version="1.1" id="Слой_1" xmlns="http://www.w3.org/2000/svg" xmlns:xlink="http://www.w3.org/1999/xlink" x="0px" y="0px"
	 viewBox="0 0 16 16" style="enable-background:new 0 0 16 16;" xml:space="preserve">
<style type="text/css">
	.st0{fill:#C9C9C9;}
	.st1{fill:url(#SVGID_1_);}
</style>
<path class="st0" d="M15.1,6.1c-0.2-0.2-0.7-0.3-1.5-0.5l-2.2-0.5C11.1,5,11,5,10.9,4.9c-0.1,0-0.2-0.1-0.3-0.2
	c-0.1-0.1-0.2-0.2-0.3-0.4l-1.1-2c-0.5-0.8-0.7-1.2-1-1.3C8.1,1,7.9,1,7.8,1v12.9c0.1,0,0.1,0,0.2,0c0.1,0,0.2,0.1,0.5,0.2l2.1,0.9
	c0.8,0.4,1.2,0.5,1.5,0.5c0.3-0.1,0.5-0.2,0.7-0.5c0.2-0.3,0.1-0.7,0-1.6l-0.2-2.3c0-0.3,0-0.4,0-0.5c0-0.1,0.1-0.2,0.1-0.3
	c0.1-0.1,0.1-0.2,0.3-0.4l1.5-1.7c0.6-0.7,0.9-1,0.9-1.3C15.4,6.6,15.3,6.3,15.1,6.1z"/>
<linearGradient id="SVGID_1_" gradientUnits="userSpaceOnUse" x1="3.9893" y1="15.1204" x2="3.9893" y2="-0.9565">
	<stop  offset="0" style="stop-color:#FF9A32"/>
	<stop  offset="1" style="stop-color:#FFAF35"/>
</linearGradient>
<path class="st1" d="M7.8,1C7.6,1,7.5,1,7.4,1.1c-0.3,0.1-0.5,0.5-1,1.3l0,0l-1.1,2C5.1,4.5,5,4.6,5,4.7C4.9,4.8,4.8,4.9,4.7,4.9
	C4.6,5,4.5,5,4.2,5.1L2,5.6C1.1,5.7,0.7,5.8,0.5,6.1C0.3,6.3,0.2,6.6,0.2,6.9c0,0.3,0.3,0.7,0.9,1.3l1.5,1.7
	c0.2,0.2,0.3,0.3,0.3,0.4C3,10.4,3,10.5,3.1,10.6c0,0.1,0,0.3,0,0.5l-0.2,2.3c-0.1,0.9-0.1,1.3,0,1.6c0.1,0.2,0.4,0.4,0.7,0.5
	c0.3,0.1,0.7-0.1,1.5-0.5l2.1-0.9c0.2-0.1,0.4-0.2,0.5-0.2c0.1,0,0.1,0,0.2,0V1z"/>
</svg>
